X: 135
T: Meng he ba ya er                         (Name) Mnxbajar                                (Name)
%%abc-version 2.0
%%abcx-abcm2ps-target-version 5.9.1 (29 Sep 2008)
%%abc-creator hum2abc beta
%%abcx-conversion-date 2013/10/02 07:44:27
%%abc-edited-by Helmut Schaffrath
%%humdrum-veritas 955117750
%%humdrum-veritas-data 3343611329
%%continueall 1
%%barnumbers 0
L: 1/8
M: 2/4
K: C
EG2G [I:setbarnb 1]| 
A2d e | 
c3d | 
E G G G | 
A2d e | 
c4 | 
AG2c | 
G c A G | 
ED2E | 
G2A2 | 
d e c A | 
GE2D | 
C4- | 
C3z |]  



